X:180
M:C |
L:1/8
K:Gmin
|: G3 B/c/ d3 B/c/ | d2B2G2B2 | F3 A/B/ c3A/B/ | c2A2F2A2 | G3 g/a/ b3a/g/ | ^f2g2a2^f2 | d2g2 ^fgaf | g4 g4 :|

